assets/images/services/value-2.svg

<?xml version="1.0" encoding="UTF-8" standalone="no"?>
<svg width="46px" height="39px" viewBox="0 0 46 39" version="1.1" xmlns="http://www.w3.org/2000/svg" xmlns:xlink="http://www.w3.org/1999/xlink">
    <!-- Generator: sketchtool 46 (44423) - http://www.bohemiancoding.com/sketch -->
    <title>4BF21683-857C-46AC-9FF1-345154A45C77</title>
    <desc>Created with sketchtool.</desc>
    <defs>
        <polygon id="path-1" points="45.7525869 32.2379032 0 32.2379032 0 0.0682657258 45.7525869 0.0682657258 45.7525869 32.2379032"></polygon>
        <polygon id="path-3" points="0 1.61282298 0 0.089621371 45.7525709 0.089621371 45.7525709 1.61282298 1.63569324e-15 1.61282298"></polygon>
    </defs>
    <g id="02-Quienes-somos" stroke="none" stroke-width="1" fill="none" fill-rule="evenodd">
        <g id="2.3-Valores" transform="translate(-677.000000, -617.000000)">
            <g id="Profesionalismo" transform="translate(677.000000, 617.000000)">
                <g id="Page-1">
                    <polygon id="Fill-1" fill="#00758D" opacity="0.4" points="30.8984706 1.02577863 28.7592318 1.02577863 16.9934187 1.02577863 15.7455294 1.02577863 13.6061315 1.02577863 13.6061315 7.71883911 16.9934187 7.71883911 16.9934187 4.19610121 28.7592318 4.19610121 28.7592318 7.71883911 32.1463599 7.71883911 32.1463599 1.02577863"></polygon>
                    <path d="M41.0744505,38.1890516 L4.6781045,38.1890516 C2.52008374,38.1890516 0.770810381,36.4607855 0.770810381,34.3286806 L0.770810381,11.402971 C0.770810381,9.27086613 2.52008374,7.5426 4.6781045,7.5426 L41.0744505,7.5426 C43.2324713,7.5426 44.9817446,9.27086613 44.9817446,11.402971 L44.9817446,34.3286806 C44.9817446,36.4607855 43.2324713,38.1890516 41.0744505,38.1890516" id="Fill-3" fill="#00758D" opacity="0.4"></path>
                    <g id="Group-7" transform="translate(0.000000, 6.712718)">
                        <mask id="mask-2" fill="white">
                            <use xlink:href="#path-1"></use>
                        </mask>
                        <g id="Clip-6"></g>
                        <path d="M4.67808858,1.59146734 C2.94871142,1.59146734 1.5416526,2.98162863 1.5416526,4.6902375 L1.5416526,27.6159472 C1.5416526,29.324556 2.94871142,30.7147173 4.67808858,30.7147173 L41.0744346,30.7147173 C42.8038118,30.7147173 44.2108706,29.324556 44.2108706,27.6159472 L44.2108706,4.6902375 C44.2108706,2.98162863 42.8038118,1.59146734 41.0744346,1.59146734 L4.67808858,1.59146734 Z M41.0744346,32.237919 L4.67808858,32.237919 C2.09858685,32.237919 -6.36678201e-05,30.1644714 -6.36678201e-05,27.6159472 L-6.36678201e-05,4.6902375 C-6.36678201e-05,2.14171331 2.09858685,0.0682657258 4.67808858,0.0682657258 L41.0744346,0.0682657258 C43.6539363,0.0682657258 45.7525869,2.14171331 45.7525869,4.6902375 L45.7525869,27.6159472 C45.7525869,30.1644714 43.6539363,32.237919 41.0744346,32.237919 L41.0744346,32.237919 Z" id="Fill-5" fill="#00758D" mask="url(#mask-2)"></path>
                    </g>
                    <g id="Group-10" transform="translate(0.000000, 22.281266)">
                        <mask id="mask-4" fill="white">
                            <use xlink:href="#path-3"></use>
                        </mask>
                        <g id="Clip-9"></g>
                        <path d="M44.9817128,1.61282298 L0.770778547,1.61282298 C0.345,1.61282298 -7.95847751e-05,1.2718875 -7.95847751e-05,0.851222177 C-7.95847751e-05,0.430556855 0.345,0.089621371 0.770778547,0.089621371 L44.9817128,0.089621371 C45.4074913,0.089621371 45.7525709,0.430556855 45.7525709,0.851222177 C45.7525709,1.2718875 45.4074913,1.61282298 44.9817128,1.61282298" id="Fill-8" fill="#00758D" mask="url(#mask-4)"></path>
                    </g>
                    <g id="Group-13" transform="translate(0.000000, 19.136105)" fill="#00758D">
                        <path d="M45.0709433,1.58517702 L0.859849827,1.58517702 C0.43407128,1.58517702 0.0889916955,1.24424153 0.0889916955,0.82357621 C0.0889916955,0.402910887 0.43407128,0.0619754032 0.859849827,0.0619754032 L45.0709433,0.0619754032 C45.4967218,0.0619754032 45.8418014,0.402910887 45.8418014,0.82357621 C45.8418014,1.24424153 45.4967218,1.58517702 45.0709433,1.58517702" id="Fill-11"></path>
                    </g>
                    <path d="M26.7090803,29.7038782 L17.7955855,29.7038782 C17.3698069,29.7038782 17.0247273,29.3629427 17.0247273,28.9422774 L17.0247273,23.3061484 C17.0247273,22.8856403 17.3698069,22.5447048 17.7955855,22.5447048 C18.221364,22.5447048 18.5664436,22.8856403 18.5664436,23.3061484 L18.5664436,28.1806766 L25.9382221,28.1806766 L25.9382221,23.3061484 C25.9382221,22.8856403 26.2833017,22.5447048 26.7090803,22.5447048 C27.1348588,22.5447048 27.4799384,22.8856403 27.4799384,23.3061484 L27.4799384,28.9422774 C27.4799384,29.3629427 27.1348588,29.7038782 26.7090803,29.7038782" id="Fill-14" fill="#00758D"></path>
                    <path d="M13.5171398,8.21604194 C13.0913612,8.21604194 12.7462817,7.87510645 12.7462817,7.45444113 L12.7462817,2.17811855 C12.7462817,0.977295968 13.7353612,9.43548387e-05 14.9509391,9.43548387e-05 L30.9799495,9.43548387e-05 C32.1955273,9.43548387e-05 33.1846069,0.977295968 33.1846069,2.17811855 L33.1846069,7.422675 C33.1846069,7.84334032 32.8395273,8.18427581 32.4137488,8.18427581 C31.9879702,8.18427581 31.6428907,7.84334032 31.6428907,7.422675 L31.6428907,2.17811855 C31.6428907,1.81705403 31.3455619,1.52313871 30.9799495,1.52313871 L14.9509391,1.52313871 C14.5853266,1.52313871 14.2879979,1.81705403 14.2879979,2.17811855 L14.2879979,7.45444113 C14.2879979,7.87510645 13.9429183,8.21604194 13.5171398,8.21604194" id="Fill-16" fill="#00758D"></path>
                    <path d="M17.2123882,8.24244556 C16.7866097,8.24244556 16.4415301,7.90151008 16.4415301,7.48084476 L16.4415301,4.19619556 C16.4415301,3.77553024 16.7866097,3.43459476 17.2123882,3.43459476 L28.7591841,3.43459476 C29.1849626,3.43459476 29.5300422,3.77553024 29.5300422,4.19619556 L29.5300422,7.47313911 C29.5300422,7.89380444 29.1849626,8.23473992 28.7591841,8.23473992 C28.3334055,8.23473992 27.988326,7.89380444 27.988326,7.47313911 L27.988326,4.95763911 L17.9832464,4.95763911 L17.9832464,7.48084476 C17.9832464,7.90151008 17.6381668,8.24244556 17.2123882,8.24244556" id="Fill-18" fill="#00758D"></path>
                </g>
            </g>
        </g>
    </g>
</svg>

<svg width="46" height="39" viewBox="0 0 46 39" xmlns="http://www.w3.org/2000/svg" xmlns:xlink="http://www.w3.org/1999/xlink"><title>4BF21683-857C-46AC-9FF1-345154A45C77</title><defs><path id="a" d="M45.753 32.238H0V.068h45.753v32.17z"/><path id="c" d="M0 1.613V.09h45.753v1.523H0z"/></defs><g fill="none" fill-rule="evenodd"><path fill="#00758D" opacity=".4" d="M30.898 1.026H13.606v6.693h3.387V4.196H28.76V7.72h3.387V1.026z"/><path d="M41.074 38.19H4.678c-2.158 0-3.907-1.73-3.907-3.861V11.403c0-2.132 1.75-3.86 3.907-3.86h36.396c2.158 0 3.908 1.728 3.908 3.86v22.926c0 2.132-1.75 3.86-3.908 3.86" fill="#00758D" opacity=".4"/><g transform="translate(0 6.713)"><mask id="b" fill="#fff"><use xlink:href="#a"/></mask><path d="M4.678 1.591c-1.73 0-3.136 1.39-3.136 3.1v22.925c0 1.709 1.407 3.099 3.136 3.099h36.396c1.73 0 3.137-1.39 3.137-3.1V4.69c0-1.708-1.407-3.099-3.137-3.099H4.678zm36.396 30.647H4.678C2.098 32.238 0 30.164 0 27.616V4.69C0 2.142 2.099.068 4.678.068h36.396c2.58 0 4.679 2.074 4.679 4.622v22.926c0 2.548-2.1 4.622-4.679 4.622z" fill="#00758D" mask="url(#b)"/></g><g transform="translate(0 22.281)"><mask id="d" fill="#fff"><use xlink:href="#c"/></mask><path d="M44.982 1.613H.77A.766.766 0 0 1 0 .85C0 .431.345.09.77.09h44.212c.425 0 .77.34.77.761 0 .42-.345.762-.77.762" fill="#00758D" mask="url(#d)"/></g><path d="M45.07 20.721H.86a.766.766 0 0 1-.771-.761c0-.421.345-.762.77-.762h44.212c.426 0 .77.341.77.762 0 .42-.344.761-.77.761M26.71 29.704h-8.914a.766.766 0 0 1-.771-.762v-5.636c0-.42.345-.761.77-.761.426 0 .771.34.771.761v4.875h7.372v-4.875c0-.42.345-.761.771-.761.426 0 .77.34.77.761v5.636c0 .42-.344.762-.77.762M13.517 8.216a.766.766 0 0 1-.77-.762V2.178c0-1.2.988-2.178 2.204-2.178H30.98c1.216 0 2.205.977 2.205 2.178v5.245c0 .42-.345.761-.771.761a.766.766 0 0 1-.771-.761V2.178a.66.66 0 0 0-.663-.655H14.95a.66.66 0 0 0-.662.655v5.276a.766.766 0 0 1-.77.762" fill="#00758D"/><path d="M17.212 8.242a.766.766 0 0 1-.77-.761V4.196c0-.42.345-.761.77-.761H28.76c.426 0 .771.34.771.761v3.277c0 .42-.345.762-.77.762a.766.766 0 0 1-.772-.762V4.958H17.983V7.48c0 .42-.345.761-.77.761" fill="#00758D"/></g></svg>
